X:1
T:Morris Off
L:1/8
M:2/4
I:linebreak $
K:G
V:1 treble 
V:1
 B/c/d dd | d3 c | BG GA | F2 D2 | B/c/d dd | d3 c | BG GA | D4 :| BG GA | BG cA | BG GA | F2 D2 |$ %12
 BG GA | BG cA | BG GA | D4 :| %16
